rp.svg

<?xml version="1.0" standalone="no"?><!-- Generator: Adobe Fireworks CS6, Export SVG Extension by Aaron Beall (http://fireworks.abeall.com) . Version: 0.6.1  --><!DOCTYPE svg PUBLIC "-//W3C//DTD SVG 1.1//EN" "http://www.w3.org/Graphics/SVG/1.1/DTD/svg11.dtd"><svg id="Untitled-Page%201" viewBox="0 0 778 232" style="background-color:#ffffff00" version="1.1"	xmlns="http://www.w3.org/2000/svg" xmlns:xlink="http://www.w3.org/1999/xlink" xml:space="preserve"	x="0px" y="0px" width="778px" height="232px">	<g id="Layer%201">		<g>			<path d="M 255.3072 100.0765 L 265.3206 100.0765 L 265.3206 58.0267 C 265.3206 44.0986 271.0627 37.119 282.5625 37.119 C 290.4168 37.119 294.3596 40.6478 294.3596 47.7056 C 294.3596 48.3302 294.2657 49.5637 294.078 51.375 L 293.7807 53.1082 L 303.9037 53.1082 L 304.373 48.2365 C 304.373 34.8392 297.8487 28.125 284.8312 28.125 C 275.3967 28.125 268.6376 31.529 264.5383 38.3369 L 264.3193 38.1183 L 265.3206 30.1237 L 255.3072 30.1237 L 255.3072 100.0765 L 255.3072 100.0765 Z" fill="#ffffff"/>			<path d="M 325.4013 48.0023 C 325.4013 40.7571 331.7692 37.119 344.5207 37.119 C 352.0308 37.119 356.8967 38.3213 359.1184 40.7259 C 361.3401 43.1305 362.451 48.377 362.451 56.4965 L 362.451 64.9283 L 362.232 64.9908 C 359.7599 60.4001 352.3437 58.1048 339.9677 58.1048 C 329.5475 58.1048 322.3347 59.6975 318.3606 62.8672 C 314.3708 66.0526 312.3838 71.7831 312.3838 80.09 C 312.3838 94.0806 321.2707 101.0758 339.0759 101.0758 C 351.1076 101.0758 359.0871 98.234 363.0299 92.5191 L 363.2333 92.5972 L 362.451 100.0765 L 372.4644 100.0765 L 372.4644 54.248 C 372.4644 44.4734 370.4148 37.8372 366.3312 34.3552 C 362.232 30.8732 354.3777 29.1244 342.737 29.1244 C 332.0352 29.1244 324.838 30.5609 321.1612 33.4027 C 317.4844 36.2602 315.6538 41.8345 315.6538 50.1102 L 325.855 50.1102 C 325.5421 49.064 325.4013 48.3614 325.4013 48.0023 L 325.4013 48.0023 ZM 359.181 68.832 C 362.0286 70.6588 363.4523 74.2033 363.4523 79.481 C 363.4523 87.8816 356.1144 92.0819 341.4541 92.0819 C 334.163 92.0819 329.3441 91.2075 326.9659 89.4587 C 324.5877 87.7098 323.3986 84.1341 323.3986 78.7003 C 323.3986 73.4851 324.5877 70.0811 326.9972 68.4884 C 329.4066 66.8958 334.5855 66.0994 342.5649 66.0994 C 350.7947 66.0994 356.3334 67.0207 359.181 68.832 L 359.181 68.832 Z" fill="#ffffff"/>			<path d="M 439.5545 0.1439 L 439.5545 38.8366 L 439.3354 38.9771 C 436.8947 32.419 429.3063 29.1244 416.6018 29.1244 C 406.4163 29.1244 399.3443 31.6851 395.4015 36.7754 C 391.4587 41.8658 389.4873 50.969 389.4873 64.0695 C 389.4873 78.3099 391.443 88.0378 395.3702 93.253 C 399.2817 98.4682 406.604 101.0758 417.3372 101.0758 C 429.0717 101.0758 436.5504 97.7031 439.7735 90.9264 L 440.0551 91.0045 L 439.5545 100.0765 L 449.5679 100.0765 L 449.5679 0.1439 L 439.5545 0.1439 L 439.5545 0.1439 ZM 435.3614 43.2554 C 438.1463 46.675 439.5545 53.2799 439.5545 63.0858 C 439.5545 75.2027 438.2871 83.0567 435.7682 86.6637 C 433.2491 90.2862 427.7887 92.0819 419.4024 92.0819 C 411.689 92.0819 406.604 90.2862 404.1632 86.6637 C 401.7224 83.0567 400.5021 75.5149 400.5021 64.0227 C 400.5021 53.5922 401.7381 46.675 404.2102 43.2554 C 406.6822 39.8359 411.6733 38.1183 419.199 38.1183 C 427.1785 38.1183 432.5764 39.8359 435.3614 43.2554 L 435.3614 43.2554 Z" fill="#ffffff"/>			<path d="M 466.5908 0.1439 L 466.5908 11.1365 L 476.6042 11.1365 L 476.6042 0.1439 L 466.5908 0.1439 L 466.5908 0.1439 ZM 466.5908 30.1237 L 466.5908 100.0765 L 476.6042 100.0765 L 476.6042 30.1237 L 466.5908 30.1237 L 466.5908 30.1237 Z" fill="#ffffff"/>			<path d="M 498.4304 35.8542 C 494.5502 40.3512 492.6257 50.0946 492.6257 65.1001 C 492.6257 80.1212 494.5502 89.8646 498.4304 94.346 C 502.2949 98.843 510.6968 101.0758 523.636 101.0758 C 536.6066 101.0758 545.0242 98.843 548.9044 94.346 C 552.7689 89.8646 554.709 80.1212 554.709 65.1001 C 554.709 50.0946 552.7689 40.3512 548.9044 35.8542 C 545.0242 31.3728 536.6066 29.1244 523.636 29.1244 C 510.6968 29.1244 502.2949 31.3728 498.4304 35.8542 L 498.4304 35.8542 ZM 540.4555 42.4591 C 542.6147 45.3634 543.6942 52.9052 543.6942 65.1001 C 543.6942 77.3106 542.6147 84.8524 540.4555 87.7411 C 538.2964 90.6454 532.6794 92.0819 523.636 92.0819 C 514.624 92.0819 509.0383 90.6454 506.8792 87.7411 C 504.7201 84.8524 503.6405 77.3106 503.6405 65.1001 C 503.6405 52.9052 504.7201 45.3634 506.8792 42.4591 C 509.0383 39.5704 514.624 38.1183 523.636 38.1183 C 532.6794 38.1183 538.2964 39.5704 540.4555 42.4591 L 540.4555 42.4591 Z" fill="#ffffff"/>			<path d="M 254.3058 231.7497 L 264.3193 231.7497 L 264.3193 193.4942 L 264.5383 193.4942 C 268.2464 199.6776 275.866 202.7692 287.3815 202.7692 C 297.4732 202.7692 304.4982 200.2241 308.4567 195.1338 C 312.3994 190.0434 314.3865 180.9402 314.3865 167.8241 C 314.3865 153.693 312.4307 143.9964 308.5192 138.7187 C 304.6077 133.4566 297.4732 130.8178 287.0842 130.8178 C 275.3184 130.8178 267.6675 134.1749 264.1003 140.8891 L 263.8186 140.6705 L 264.3193 131.8171 L 254.3058 131.8171 L 254.3058 231.7497 L 254.3058 231.7497 ZM 299.7888 144.9801 C 302.167 148.4309 303.3717 155.9883 303.3717 167.6523 C 303.3717 178.2701 302.1357 185.281 299.6793 188.685 C 297.2228 192.0889 292.1535 193.7753 284.4713 193.7753 C 276.3824 193.7753 271.0001 192.0265 268.3247 188.4976 C 265.6492 184.9844 264.3193 177.9422 264.3193 167.3712 C 264.3193 155.9414 265.5553 148.4777 268.043 145.0113 C 270.5151 141.5449 275.8504 139.8117 284.0333 139.8117 C 292.1535 139.8117 297.4106 141.5449 299.7888 144.9801 L 299.7888 144.9801 Z" fill="#ffffff"/>			<path d="M 341.4228 149.6956 C 341.4228 142.4505 347.7907 138.8124 360.5422 138.8124 C 368.0523 138.8124 372.9182 140.0147 375.1399 142.4193 C 377.3616 144.8239 378.4725 150.0704 378.4725 158.1899 L 378.4725 166.6217 L 378.2534 166.6842 C 375.7814 162.0935 368.3652 159.7982 355.9892 159.7982 C 345.569 159.7982 338.3562 161.3909 334.3821 164.5606 C 330.3923 167.746 328.4053 173.4765 328.4053 181.7834 C 328.4053 195.774 337.2922 202.7692 355.0974 202.7692 C 367.1292 202.7692 375.1086 199.9274 379.0514 194.2125 L 379.2548 194.2906 L 378.4725 201.7699 L 388.4859 201.7699 L 388.4859 155.9414 C 388.4859 146.1668 386.4363 139.5306 382.3527 136.0486 C 378.2534 132.5666 370.3992 130.8178 358.7585 130.8178 C 348.0567 130.8178 340.8595 132.2543 337.1827 135.0961 C 333.5059 137.9536 331.6753 143.5279 331.6753 151.8036 L 341.8765 151.8036 C 341.5636 150.7574 341.4228 150.0548 341.4228 149.6956 L 341.4228 149.6956 ZM 375.2025 170.5254 C 378.05 172.3522 379.4738 175.8967 379.4738 181.1744 C 379.4738 189.575 372.1359 193.7753 357.4756 193.7753 C 350.1845 193.7753 345.3656 192.9009 342.9874 191.1521 C 340.6092 189.4032 339.4201 185.8275 339.4201 180.3937 C 339.4201 175.1785 340.6092 171.7745 343.0187 170.1818 C 345.4282 168.5892 350.607 167.7928 358.5864 167.7928 C 366.8162 167.7928 372.3549 168.7141 375.2025 170.5254 L 375.2025 170.5254 Z" fill="#ffffff"/>			<path d="M 407.5115 201.7699 L 417.5249 201.7699 L 417.5249 159.7201 C 417.5249 145.792 423.267 138.8124 434.7668 138.8124 C 442.6211 138.8124 446.5639 142.3412 446.5639 149.399 C 446.5639 150.0236 446.47 151.2571 446.2823 153.0684 L 445.985 154.8016 L 456.1079 154.8016 L 456.5773 149.9299 C 456.5773 136.5327 450.0529 129.8184 437.0355 129.8184 C 427.6009 129.8184 420.8419 133.2224 416.7426 140.0303 L 416.5236 139.8117 L 417.5249 131.8171 L 407.5115 131.8171 L 407.5115 201.7699 L 407.5115 201.7699 Z" fill="#ffffff"/>			<path d="M 477.6055 149.6956 C 477.6055 142.4505 483.9735 138.8124 496.7249 138.8124 C 504.235 138.8124 509.101 140.0147 511.3227 142.4193 C 513.5444 144.8239 514.6553 150.0704 514.6553 158.1899 L 514.6553 166.6217 L 514.4362 166.6842 C 511.9642 162.0935 504.5479 159.7982 492.172 159.7982 C 481.7517 159.7982 474.5389 161.3909 470.5648 164.5606 C 466.5751 167.746 464.5881 173.4765 464.5881 181.7834 C 464.5881 195.774 473.475 202.7692 491.2802 202.7692 C 503.3119 202.7692 511.2914 199.9274 515.2342 194.2125 L 515.4376 194.2906 L 514.6553 201.7699 L 524.6687 201.7699 L 524.6687 155.9414 C 524.6687 146.1668 522.6191 139.5306 518.5355 136.0486 C 514.4362 132.5666 506.5819 130.8178 494.9413 130.8178 C 484.2394 130.8178 477.0423 132.2543 473.3655 135.0961 C 469.6887 137.9536 467.8581 143.5279 467.8581 151.8036 L 478.0593 151.8036 C 477.7464 150.7574 477.6055 150.0548 477.6055 149.6956 L 477.6055 149.6956 ZM 511.3853 170.5254 C 514.2328 172.3522 515.6566 175.8967 515.6566 181.1744 C 515.6566 189.575 508.3187 193.7753 493.6583 193.7753 C 486.3673 193.7753 481.5483 192.9009 479.1701 191.1521 C 476.792 189.4032 475.6028 185.8275 475.6028 180.3937 C 475.6028 175.1785 476.792 171.7745 479.2014 170.1818 C 481.6109 168.5892 486.7897 167.7928 494.7692 167.7928 C 502.999 167.7928 508.5377 168.7141 511.3853 170.5254 L 511.3853 170.5254 Z" fill="#ffffff"/>			<path d="M 591.7587 101.8373 L 591.7587 140.53 L 591.5397 140.6705 C 589.0989 134.1124 581.5106 130.8178 568.8061 130.8178 C 558.6205 130.8178 551.5485 133.3785 547.6057 138.4689 C 543.663 143.5592 541.6915 152.6624 541.6915 165.7629 C 541.6915 180.0033 543.6473 189.7312 547.5745 194.9464 C 551.486 200.1616 558.8083 202.7692 569.5414 202.7692 C 581.2759 202.7692 588.7547 199.3965 591.9778 192.6198 L 592.2594 192.6979 L 591.7587 201.7699 L 601.7722 201.7699 L 601.7722 101.8373 L 591.7587 101.8373 L 591.7587 101.8373 ZM 587.5656 144.9489 C 590.3506 148.3684 591.7587 154.9733 591.7587 164.7792 C 591.7587 176.8961 590.4914 184.7501 587.9724 188.3571 C 585.4534 191.9796 579.993 193.7753 571.6067 193.7753 C 563.8932 193.7753 558.8083 191.9796 556.3675 188.3571 C 553.9267 184.7501 552.7064 177.2083 552.7064 165.7161 C 552.7064 155.2856 553.9424 148.3684 556.4144 144.9489 C 558.8865 141.5293 563.8776 139.8117 571.4033 139.8117 C 579.3828 139.8117 584.7806 141.5293 587.5656 144.9489 L 587.5656 144.9489 Z" fill="#ffffff"/>			<path d="M 618.795 101.8373 L 618.795 112.8299 L 628.8085 112.8299 L 628.8085 101.8373 L 618.795 101.8373 L 618.795 101.8373 ZM 618.795 131.8171 L 618.795 201.7699 L 628.8085 201.7699 L 628.8085 131.8171 L 618.795 131.8171 L 618.795 131.8171 Z" fill="#ffffff"/>			<path d="M 700.9052 147.291 C 700.9052 136.3141 691.5802 130.8178 672.9615 130.8178 C 661.3209 130.8178 653.5604 132.1138 649.6646 134.7058 C 645.7687 137.2978 643.8286 142.4818 643.8286 150.2578 C 643.8286 158.4866 646.2694 163.9048 651.1823 166.5124 C 656.0795 169.1201 666.312 170.4161 681.8641 170.4161 C 688.5449 170.4161 691.8931 174.0698 691.8931 181.3774 C 691.8931 186.4521 690.5945 189.7936 687.9973 191.3863 C 685.4 192.979 679.9865 193.7753 671.7567 193.7753 C 665.0446 193.7753 660.5542 193.057 658.2699 191.6049 C 655.9856 190.1527 654.8434 187.2485 654.8434 182.9076 L 654.3271 179.7847 L 643.6878 179.7847 L 643.8286 183.5478 C 643.8286 190.871 645.9721 195.8989 650.2592 198.647 C 654.5461 201.3952 662.3848 202.7692 673.7751 202.7692 C 684.8524 202.7692 692.4877 201.3327 696.6495 198.4284 C 700.8113 195.5241 702.9079 190.184 702.9079 182.3923 C 702.9079 169.8696 696.5557 163.2959 683.8824 162.6557 L 673.4308 162.156 L 665.1541 161.7188 C 658.2699 161.3753 654.8434 157.659 654.8434 150.5388 C 654.8434 145.8545 655.876 142.9034 657.9413 141.6698 C 660.0066 140.4363 664.8725 139.8117 672.5547 139.8117 C 680.8158 139.8117 685.932 140.3582 687.9347 141.4356 C 689.9218 142.5286 690.9231 145.308 690.9231 149.805 L 701.1869 149.805 L 700.9052 147.291 L 700.9052 147.291 Z" fill="#ffffff"/>			<path d="M 766.7123 182.9701 C 766.7123 187.4671 765.4763 190.4026 763.0042 191.7454 C 760.5322 193.1039 755.1656 193.7753 746.9045 193.7753 C 738.2053 193.7753 732.6666 192.3075 730.2885 189.3564 C 727.9102 186.4053 726.7368 179.5505 726.7368 168.7921 L 777.1951 168.7921 L 777.1951 163.2959 C 777.1951 149.9611 775.1924 141.2014 771.1871 137.0479 C 767.1817 132.8945 758.7172 130.8178 745.8249 130.8178 C 733.9965 130.8178 726.064 133.2068 722.0117 137.9848 C 717.9437 142.7628 715.9254 152.1315 715.9254 166.0596 C 715.9254 181.1276 717.9281 191.0115 721.9491 195.7115 C 725.9545 200.4271 734.3877 202.7692 747.233 202.7692 C 758.2791 202.7692 765.9926 201.3327 770.4048 198.4596 C 774.8013 195.5866 777.0074 190.5431 777.0074 183.3292 L 777.1951 180.7841 L 766.7123 180.7841 L 766.7123 182.9701 L 766.7123 182.9701 ZM 726.8776 160.7975 C 726.8776 152.0222 728.1136 146.3229 730.5857 143.7153 C 733.0577 141.1233 738.44 139.8117 746.7637 139.8117 C 755.0247 139.8117 760.3913 140.9359 762.8947 143.1532 C 765.3824 145.3705 766.6341 150.1797 766.6341 157.581 L 766.7123 160.7975 L 726.8776 160.7975 L 726.8776 160.7975 Z" fill="#ffffff"/>		</g>		<path d="M 144.6522 126.0667 C 149.136 142.8362 162.2788 153.8681 174.0078 150.7076 C 185.7367 147.5471 191.61 131.3911 187.1262 114.6216 C 182.6424 97.8522 169.4996 86.8203 157.7706 89.9808 C 146.0416 93.1413 140.1684 109.2973 144.6522 126.0667 ZM 2.9897 161.1827 C 18.6076 211.9237 82.6292 237.2462 146.645 218.665 L 112.4616 90.8228 L 133.6986 85.1002 L 136.5723 95.8479 C 141.2637 85.5718 149.6251 77.7086 160.437 74.7952 C 181.4959 69.1206 203.8749 84.3721 210.4227 108.8608 C 216.9705 133.3495 205.2072 157.801 184.1483 163.4756 C 173.3364 166.389 162.1765 163.7859 152.9898 157.2495 L 167.37 211.035 C 221.1332 186.7655 252.1335 135.3216 238.1023 89.1014 C 222.5379 37.8311 157.4035 12.161 92.4417 31.9036 C 65.5376 40.08 42.9026 54.7489 26.71 72.785 L 58.1836 62.2891 L 68.3498 100.3106 C 68.3224 86.1779 69.8899 75.0422 73.0187 66.9127 C 76.1475 58.7831 81.3625 53.7346 88.6639 51.7672 C 93.61 50.4344 98.0212 51.0133 101.8638 53.5129 C 105.7064 56.0125 108.3654 60.0214 109.8408 65.5396 C 111.0374 70.0146 110.7864 73.7976 109.1305 76.9131 C 107.4746 80.0287 104.8712 82.0287 101.3719 82.9716 C 97.94 83.8964 94.8324 83.4713 92.1075 81.6445 C 89.3917 79.8513 87.4849 76.9022 86.3963 72.8309 C 85.7036 70.24 85.7871 67.5843 86.6468 64.8637 C 87.4775 62.4395 87.8602 61.0378 87.7613 60.6676 C 87.4824 59.6245 86.7327 59.2494 85.5887 59.5577 C 83.0989 60.2286 80.7314 62.7062 78.4862 66.9905 C 75.4076 73.0143 73.7906 80.5923 73.7025 89.7061 C 73.5617 103.8841 74.5517 114.8716 76.6569 122.7452 L 82.4867 144.5486 C 83.1525 147.0385 84.4974 148.6962 86.5216 149.5214 C 88.5549 150.3803 91.5858 150.249 95.6907 149.1429 L 108.2074 145.7701 L 110.5105 154.3839 L 48.0619 171.2113 L 45.7587 162.5976 L 55.3481 160.0137 C 58.5782 159.1433 60.8388 157.8848 62.1546 156.1956 C 63.4705 154.5064 63.9068 152.7656 63.4389 151.0159 L 47.362 90.8881 C 46.1474 86.3456 44.281 83.2775 41.7964 81.6745 C 39.278 80.0806 36.2311 79.7473 32.6309 80.7174 L 24.4547 82.9206 L 22.925 77.205 C 2.6 102.1154 -5.7974 132.6345 2.9897 161.1827 Z" fill="#ffffff"/>	</g></svg>

<svg xmlns="http://www.w3.org/2000/svg" width="778" height="232" viewBox="0 0 778 232">
  <path fill="#fff" d="M255.307 100.076h10.014v-42.05c0-13.927 5.75-20.907 17.25-20.907 7.86 0 11.8 3.52 11.8 10.58 0 .62-.09 1.86-.28 3.67l-.3 1.73h10.13l.47-4.87c0-13.4-6.52-20.12-19.54-20.12-9.43 0-16.19 3.4-20.29 10.21l-.22-.22 1.01-8h-10.02v69.95zM325.4 48.002c0-7.245 6.37-10.883 19.12-10.883 7.51 0 12.377 1.2 14.598 3.6 2.222 2.4 3.333 7.65 3.333 15.77v8.43l-.21.06c-2.47-4.59-9.89-6.89-22.26-6.89-10.42 0-17.63 1.59-21.6 4.76-3.99 3.18-5.97 8.91-5.97 17.22 0 13.99 8.89 20.98 26.69 20.98 12.03 0 20.01-2.84 23.96-8.56l.21.07-.78 7.48h10.01v-45.8c0-9.78-2.05-16.41-6.13-19.89-4.1-3.49-11.95-5.23-23.59-5.23-10.7 0-17.9 1.43-21.57 4.27-3.68 2.85-5.51 8.43-5.51 16.7h10.2c-.31-1.05-.45-1.75-.45-2.11zm33.78 20.83c2.85 1.827 4.272 5.37 4.272 10.65 0 8.4-7.338 12.6-21.998 12.6-7.29 0-12.11-.874-14.488-2.623-2.378-1.75-3.567-5.33-3.567-10.76 0-5.22 1.18-8.62 3.59-10.22 2.41-1.59 7.59-2.39 15.57-2.39 8.23 0 13.77.92 16.61 2.73zM439.555.144v38.693l-.22.14c-2.44-6.558-10.03-9.853-22.733-9.853-10.186 0-17.258 2.56-21.2 7.65-3.943 5.092-5.915 14.195-5.915 27.296 0 14.24 1.956 23.968 5.883 29.183 3.912 5.215 11.234 7.823 21.967 7.823 11.735 0 19.213-3.373 22.437-10.15l.28.078-.5 9.072h10.014V.144h-10.013zm-4.194 43.11c2.79 3.42 4.2 10.026 4.2 19.832 0 12.117-1.27 19.97-3.78 23.578-2.52 3.622-7.98 5.418-16.36 5.418-7.71 0-12.8-1.796-15.24-5.418-2.44-3.607-3.66-11.15-3.66-22.64 0-10.432 1.24-17.35 3.71-20.77 2.48-3.418 7.47-5.136 14.99-5.136 7.98 0 13.38 1.718 16.16 5.137zM466.59.144v10.992h10.014V.144H466.59zm0 29.98v69.953h10.014V30.123H466.59zm31.84 5.73c-3.88 4.497-5.804 14.24-5.804 29.246 0 15.02 1.924 24.765 5.804 29.246 3.865 4.497 12.267 6.73 25.206 6.73 12.97 0 21.388-2.233 25.268-6.73 3.865-4.48 5.805-14.225 5.805-29.246 0-15.005-1.94-24.75-5.81-29.246-3.88-4.48-12.3-6.73-25.27-6.73-12.94 0-21.34 2.25-25.21 6.73zm42.026 6.605c2.16 2.9 3.238 10.44 3.238 22.64 0 12.21-1.08 19.75-3.238 22.64-2.16 2.9-7.777 4.34-16.82 4.34-9.012 0-14.598-1.44-16.757-4.34-2.16-2.89-3.24-10.43-3.24-22.64 0-12.2 1.08-19.74 3.24-22.64 2.15-2.89 7.74-4.35 16.75-4.35 9.04 0 14.66 1.45 16.82 4.34zm-286.15 189.29h10.013v-38.26h.21c3.71 6.18 11.33 9.27 22.84 9.27 10.09 0 17.11-2.55 21.07-7.64 3.94-5.09 5.93-14.2 5.93-27.31 0-14.13-1.96-23.83-5.87-29.11-3.92-5.27-11.05-7.9-21.44-7.9-11.77 0-19.42 3.35-22.99 10.07l-.28-.22.5-8.85h-10v99.93zm45.483-86.77c2.37 3.45 3.58 11 3.58 22.67 0 10.62-1.24 17.63-3.7 21.03s-7.53 5.09-15.21 5.09c-8.09 0-13.47-1.75-16.15-5.28-2.68-3.52-4.01-10.56-4.01-21.13 0-11.43 1.23-18.89 3.72-22.36 2.47-3.47 7.8-5.2 15.99-5.2 8.12 0 13.37 1.73 15.75 5.16zm41.63 4.71c0-7.25 6.37-10.89 19.12-10.89 7.51 0 12.37 1.2 14.59 3.6 2.22 2.4 3.33 7.65 3.33 15.77v8.43l-.22.06c-2.48-4.59-9.89-6.89-22.27-6.89-10.42 0-17.64 1.59-21.61 4.76-3.99 3.18-5.98 8.91-5.98 17.22 0 13.99 8.88 20.98 26.69 20.98 12.03 0 20.01-2.84 23.95-8.56l.2.08-.78 7.48h10.01V155.9c0-9.77-2.05-16.41-6.14-19.89-4.1-3.48-11.96-5.23-23.6-5.23-10.7 0-17.9 1.436-21.58 4.28-3.68 2.856-5.51 8.43-5.51 16.706h10.2c-.32-1.046-.46-1.75-.46-2.107zm33.78 20.83c2.84 1.82 4.27 5.37 4.27 10.65 0 8.4-7.34 12.6-22 12.6-7.29 0-12.11-.88-14.49-2.62-2.38-1.75-3.57-5.33-3.57-10.76 0-5.22 1.19-8.62 3.6-10.21 2.4-1.59 7.58-2.39 15.56-2.39 8.23 0 13.77.92 16.61 2.73zm32.31 31.24h10.01v-42.05c0-13.93 5.74-20.91 17.24-20.91 7.85 0 11.79 3.53 11.79 10.59 0 .62-.1 1.85-.28 3.66l-.3 1.73h10.13l.47-4.87c0-13.4-6.53-20.12-19.55-20.12-9.44 0-16.2 3.4-20.29 10.21l-.22-.22 1-7.99H407.5v69.95zm70.09-52.08c0-7.25 6.36-10.89 19.12-10.89 7.51 0 12.37 1.2 14.59 3.6 2.22 2.4 3.33 7.65 3.33 15.77v8.43l-.22.06c-2.47-4.59-9.89-6.89-22.27-6.89-10.42 0-17.64 1.59-21.61 4.76-3.99 3.18-5.98 8.91-5.98 17.22 0 13.99 8.88 20.99 26.69 20.99 12.03 0 20.01-2.85 23.95-8.56l.2.08-.79 7.48h10.01V155.9c0-9.774-2.05-16.41-6.14-19.89-4.1-3.484-11.95-5.233-23.6-5.233-10.7 0-17.9 1.44-21.58 4.28-3.68 2.86-5.51 8.43-5.51 16.71H478c-.313-1.048-.453-1.75-.453-2.11zm33.78 20.83c2.84 1.82 4.27 5.37 4.27 10.65 0 8.4-7.34 12.6-22 12.6-7.29 0-12.11-.88-14.49-2.62-2.38-1.75-3.57-5.33-3.57-10.76 0-5.22 1.19-8.62 3.59-10.21 2.41-1.6 7.59-2.39 15.57-2.39 8.23 0 13.77.92 16.61 2.73zm80.37-68.69v38.69l-.22.14c-2.44-6.56-10.03-9.86-22.74-9.86-10.19 0-17.26 2.56-21.2 7.65-3.95 5.09-5.92 14.19-5.92 27.29 0 14.24 1.95 23.96 5.88 29.18 3.91 5.21 11.23 7.82 21.96 7.82 11.73 0 19.21-3.38 22.44-10.15l.28.08-.5 9.07h10.01V101.8h-10.01zm-4.2 43.11c2.78 3.41 4.19 10.02 4.19 19.83 0 12.11-1.27 19.97-3.79 23.57-2.52 3.62-7.98 5.42-16.37 5.42-7.72 0-12.8-1.8-15.24-5.42-2.44-3.61-3.66-11.15-3.66-22.64 0-10.43 1.23-17.35 3.7-20.77 2.47-3.42 7.46-5.14 14.99-5.14 7.98 0 13.37 1.71 16.16 5.13zm31.23-43.12v10.99h10.02v-10.99h-10.01zm0 29.98v69.95h10.02V131.8h-10.01zm82.11 15.47c0-10.98-9.33-16.48-27.95-16.48-11.64 0-19.4 1.29-23.3 3.89-3.9 2.59-5.84 7.78-5.84 15.55 0 8.23 2.44 13.64 7.35 16.25 4.9 2.6 15.13 3.9 30.68 3.9 6.68 0 10.03 3.66 10.03 10.96 0 5.08-1.3 8.42-3.9 10.01-2.6 1.6-8.01 2.39-16.24 2.39-6.71 0-11.2-.72-13.49-2.17s-3.43-4.35-3.43-8.69l-.52-3.13h-10.64l.14 3.76c0 7.32 2.14 12.35 6.43 15.1 4.28 2.74 12.12 4.12 23.51 4.12 11.07 0 18.71-1.44 22.87-4.34 4.16-2.91 6.25-8.25 6.25-16.04 0-12.52-6.35-19.1-19.028-19.74l-10.45-.5-8.275-.44c-6.88-.345-10.31-4.06-10.31-11.18 0-4.685 1.03-7.64 3.1-8.87 2.063-1.234 6.93-1.86 14.61-1.86 8.26 0 13.37.55 15.38 1.626 1.98 1.09 2.983 3.87 2.983 8.37h10.26l-.28-2.517zm65.8 35.68c0 4.49-1.24 7.43-3.71 8.77-2.48 1.36-7.84 2.03-16.1 2.03-8.7 0-14.24-1.47-16.62-4.42-2.38-2.95-3.56-9.81-3.56-20.57h50.46v-5.5c0-13.34-2.01-22.1-6.01-26.25-4.01-4.16-12.47-6.23-25.37-6.23-11.83 0-19.76 2.39-23.81 7.16-4.07 4.78-6.09 14.15-6.09 28.08 0 15.07 2 24.95 6.02 29.65 4 4.72 12.43 7.06 25.28 7.06 11.04 0 18.76-1.438 23.17-4.31 4.4-2.87 6.6-7.918 6.6-15.13l.182-2.547H766.7v2.187zm-39.83-22.18c0-8.78 1.23-14.48 3.7-17.09 2.47-2.59 7.85-3.9 16.18-3.9 8.26 0 13.62 1.12 16.13 3.34 2.48 2.22 3.74 7.02 3.74 14.43l.07 3.21h-39.83zm-582.23-34.73c4.48 16.77 17.62 27.8 29.35 24.64s17.6-19.32 13.12-36.09c-4.49-16.77-17.63-27.81-29.36-24.64-11.73 3.16-17.6 19.31-13.12 36.08zM2.99 161.18c15.618 50.74 79.64 76.06 143.655 57.48L112.462 90.82 133.7 85.1l2.872 10.748c4.692-10.276 13.053-18.14 23.865-21.053 21.06-5.674 43.438 9.577 49.986 34.066 6.547 24.49-5.216 48.94-26.275 54.62-10.812 2.92-21.97.31-31.158-6.22l14.38 53.79c53.763-24.27 84.763-75.71 70.732-121.93-15.564-51.27-80.698-76.94-145.66-57.19-26.904 8.17-49.54 22.84-65.732 40.88l31.474-10.5 10.166 38.02c-.028-14.13 1.54-25.27 4.67-33.4 3.127-8.13 8.343-13.18 15.644-15.14 4.946-1.33 9.357-.75 13.2 1.75 3.842 2.5 6.5 6.51 7.977 12.03 1.2 4.48.95 8.26-.71 11.37-1.65 3.12-4.26 5.12-7.75 6.06-3.43.93-6.54.5-9.26-1.33-2.71-1.79-4.62-4.74-5.71-8.81-.69-2.59-.61-5.24.25-7.96.84-2.42 1.22-3.83 1.12-4.2-.28-1.04-1.02-1.42-2.17-1.11-2.49.67-4.86 3.15-7.1 7.43-3.08 6.03-4.69 13.61-4.78 22.72-.14 14.18.85 25.17 2.96 33.04l5.83 21.81c.67 2.49 2.01 4.15 4.04 4.97 2.04.86 5.07.73 9.17-.37l12.52-3.37 2.3 8.62-62.45 16.82-2.3-8.61 9.59-2.58c3.23-.87 5.49-2.13 6.81-3.815 1.32-1.69 1.75-3.43 1.29-5.18L47.37 90.9c-1.216-4.54-3.08-7.61-5.567-9.212-2.51-1.592-5.56-1.926-9.16-.956l-8.18 2.198-1.53-5.713c-20.33 24.9-28.723 55.42-19.94 83.966z"/>
</svg>
